X:43
T:Canoe Paddler's Hornpipe
R:hp
C:Bruce Osborne - July 2002
Z:abc by bosborne@kos.net
M:4/4
L:1/8
K:Bb
FA|BcBA BFDF|BcBA Bdfd|gdfd cBAB|cdcB cedc|\
BcBA BFDF|BcBA Bdfd|gdfd cBAB|cedc B2:|
|:FA|BFDF BFBd|gf=eg fdBd|cFdF eFdF|cBAB cedc|\
BFDF BFBd|gf=eg fdBd|cFdF ecAc|BABc B2:|
